modules/hawcons-filled/icons/icon-12-two-fingers.svg

<?xml version="1.0" encoding="UTF-8" standalone="no"?>
<svg width="32px" height="32px" viewBox="0 0 32 32" version="1.1" xmlns="http://www.w3.org/2000/svg" xmlns:xlink="http://www.w3.org/1999/xlink" xmlns:sketch="http://www.bohemiancoding.com/sketch/ns">
    <!-- Generator: Sketch 3.0.3 (7891) - http://www.bohemiancoding.com/sketch -->
    <title>icon 12 two fingers</title>
    <desc>Created with Sketch.</desc>
    <defs></defs>
    <g id="Page-1" stroke="none" stroke-width="1" fill="none" fill-rule="evenodd" sketch:type="MSPage">
        <g id="icon-12-two-fingers" sketch:type="MSArtboardGroup" fill="#929292">
            <path d="M18.1151466,4.49089813 C18.1151466,3.66749783 17.4493494,3 16.6151466,3 C15.7867195,3 15.1151466,3.67622006 15.1151466,4.49089813 L15.1151466,13.4325233 L15.1151466,16 L14.1151466,16 L14.1151466,13.5 L14.1151466,6.50863659 C14.1151466,5.67543961 13.4493494,5 12.6151466,5 C11.7867195,5 11.1151466,5.66642015 11.1151466,6.50863659 L11.1151466,16.7983451 C9.05674703,14.5979243 6.34677642,12.1791206 5.23617935,13.2957153 C4.14900956,14.3887562 6.95050863,17.4007216 10.8625221,23.9830936 C12.6251425,26.9488875 14.8554315,28.9995418 18.6151466,29 C22.7572825,29 26.1151466,25.6421358 26.1151466,21.5 L26.1151466,18.2468012 L26.1151466,13.5063976 C26.1151466,12.6744372 25.4493494,12 24.6151466,12 C23.7867195,12 23.1151466,12.6764628 23.1151466,13.5063976 L23.1151466,15.7497253 L23.1151466,16 L22.1151466,16 L22.1151466,13.6781559 L22.1151466,12.4912653 C22.1151466,11.6676622 21.4493494,11 20.6151466,11 C19.7867195,11 19.1151466,11.6625444 19.1151466,12.4912653 L19.1151466,13.5082011 L19.1151466,15 L18.1151466,15 L18.1151466,13.5082011 L18.1151466,4.49089813 Z" id="two-fingers" sketch:type="MSShapeGroup"></path>
        </g>
    </g>
</svg>

<svg width="32" height="32" viewBox="0 0 32 32" xmlns="http://www.w3.org/2000/svg"><path d="M18.115 4.49c0-.823-.666-1.49-1.5-1.49-.828 0-1.5.676-1.5 1.49V16h-1V6.509a1.5 1.5 0 1 0-3 0v10.29c-2.058-2.201-4.768-4.62-5.879-3.503-1.087 1.093 1.715 4.105 5.627 10.687C12.625 26.95 14.855 29 18.615 29a7.5 7.5 0 0 0 7.5-7.5v-7.993a1.5 1.5 0 1 0-3 0V16h-1V12.491c0-.823-.666-1.491-1.5-1.491-.828 0-1.5.663-1.5 1.491V15h-1V4.491z" fill="#929292" fill-rule="evenodd"/></svg>
